img/StatusBar.svg

<svg width="375" height="47" viewBox="0 0 375 47" fill="none" xmlns="http://www.w3.org/2000/svg">
<g clip-path="url(#clip0_2_997)">
<path d="M39.8786 19.7231C37.2805 19.7231 35.4294 21.4995 35.4294 23.9316V23.9482C35.4294 26.2227 37.0397 27.8994 39.3391 27.8994C40.9826 27.8994 42.0285 27.061 42.4684 26.1147H42.6345C42.6345 26.2061 42.6262 26.2974 42.6262 26.3887C42.5349 28.6797 41.7297 30.5391 39.8288 30.5391C38.7746 30.5391 38.0358 29.9912 37.7204 29.1528L37.6955 29.0698H35.5871L35.6037 29.1611C35.9855 30.9956 37.6291 32.2988 39.8288 32.2988C42.842 32.2988 44.6599 29.9082 44.6599 25.874V25.8574C44.6599 21.541 42.4352 19.7231 39.8786 19.7231ZM39.8703 26.2559C38.509 26.2559 37.5212 25.2598 37.5212 23.8735V23.8569C37.5212 22.5205 38.5754 21.4663 39.8952 21.4663C41.2233 21.4663 42.2609 22.5371 42.2609 23.9067V23.9233C42.2609 25.2764 41.2233 26.2559 39.8703 26.2559ZM48.0204 24.2388C48.7841 24.2388 49.3402 23.6577 49.3402 22.9272C49.3402 22.1885 48.7841 21.6157 48.0204 21.6157C47.265 21.6157 46.7006 22.1885 46.7006 22.9272C46.7006 23.6577 47.265 24.2388 48.0204 24.2388ZM48.0204 30.3979C48.7841 30.3979 49.3402 29.8252 49.3402 29.0864C49.3402 28.3477 48.7841 27.7749 48.0204 27.7749C47.265 27.7749 46.7006 28.3477 46.7006 29.0864C46.7006 29.8252 47.265 30.3979 48.0204 30.3979ZM57.1915 32H59.2418V29.7007H60.8522V27.9326H59.2418V20.022H56.212C54.5851 22.4956 52.8834 25.2515 51.3312 27.9492V29.7007H57.1915V32ZM53.3233 27.9824V27.8579C54.4855 25.8242 55.8717 23.6079 57.1002 21.7319H57.2247V27.9824H53.3233ZM65.408 32H67.5496V20.022H65.4163L62.2869 22.2217V24.2388L65.2669 22.1304H65.408V32Z" fill="white"/>
<path opacity="0.35" d="M324.528 23C324.528 21.0822 326.082 19.5275 328 19.5275H345C346.918 19.5275 348.472 21.0822 348.472 23V28C348.472 29.9178 346.918 31.4725 345 31.4725H328C326.082 31.4725 324.528 29.9178 324.528 28V23Z" stroke="white" stroke-width="1.05509"/>
<path opacity="0.4" d="M350 24V28.2203C350.849 27.8629 351.401 27.0314 351.401 26.1102C351.401 25.1889 350.849 24.3574 350 24Z" fill="white"/>
<path d="M326 23C326 21.8954 326.895 21 328 21H345C346.105 21 347 21.8954 347 23V28C347 29.1046 346.105 30 345 30H328C326.895 30 326 29.1046 326 28V23Z" fill="white"/>
<path fill-rule="evenodd" clip-rule="evenodd" d="M308.5 22.5875C310.967 22.5876 313.339 23.5551 315.127 25.2898C315.261 25.4237 315.477 25.4221 315.609 25.286L316.896 23.9605C316.963 23.8915 317.001 23.798 317 23.7008C316.999 23.6035 316.961 23.5105 316.893 23.4423C312.201 18.8526 304.799 18.8526 300.107 23.4423C300.039 23.5105 300.001 23.6034 300 23.7007C299.999 23.7979 300.037 23.8914 300.104 23.9605L301.391 25.286C301.523 25.4223 301.739 25.424 301.873 25.2898C303.661 23.5549 306.034 22.5875 308.5 22.5875ZM308.536 26.5894C309.891 26.5893 311.198 27.1035 312.203 28.032C312.338 28.1638 312.552 28.1609 312.685 28.0255L313.97 26.7C314.038 26.6304 314.075 26.5361 314.074 26.4381C314.073 26.3401 314.034 26.2466 313.965 26.1784C310.906 23.2739 306.169 23.2739 303.109 26.1784C303.04 26.2466 303.001 26.3401 303 26.4382C302.999 26.5362 303.037 26.6305 303.105 26.7L304.39 28.0255C304.522 28.1609 304.736 28.1638 304.872 28.032C305.876 27.1041 307.182 26.5899 308.536 26.5894ZM311.15 29.1767C311.152 29.275 311.114 29.3698 311.045 29.4386L308.822 31.7289C308.756 31.7962 308.668 31.834 308.575 31.834C308.482 31.834 308.393 31.7962 308.328 31.7289L306.105 29.4386C306.036 29.3697 305.998 29.2749 306 29.1766C306.002 29.0783 306.044 28.9853 306.115 28.9194C307.535 27.6935 309.615 27.6935 311.035 28.9194C311.106 28.9853 311.148 29.0784 311.15 29.1767Z" fill="white"/>
<path d="M284 23C284 22.4477 284.448 22 285 22H286C286.552 22 287 22.4477 287 23V31C287 31.5523 286.552 32 286 32H285C284.448 32 284 31.5523 284 31V23Z" fill="white"/>
<path d="M289 21C289 20.4477 289.448 20 290 20H291C291.552 20 292 20.4477 292 21V31C292 31.5523 291.552 32 291 32H290C289.448 32 289 31.5523 289 31V21Z" fill="white"/>
<path d="M279 26.5C279 25.9477 279.448 25.5 280 25.5H281C281.552 25.5 282 25.9477 282 26.5V31C282 31.5523 281.552 32 281 32H280C279.448 32 279 31.5523 279 31V26.5Z" fill="white"/>
<path d="M274 29C274 28.4477 274.448 28 275 28H276C276.552 28 277 28.4477 277 29V31C277 31.5523 276.552 32 276 32H275C274.448 32 274 31.5523 274 31V29Z" fill="white"/>
</g>
<defs>
<clipPath id="clip0_2_997">
<rect width="375" height="47" fill="white"/>
</clipPath>
</defs>
</svg>

<svg xmlns="http://www.w3.org/2000/svg" width="375" height="47" fill="none"><g clip-path="url(#a)"><path fill="#fff" d="M39.879 19.723c-2.598 0-4.45 1.777-4.45 4.209v.016c0 2.275 1.61 3.951 3.91 3.951 1.644 0 2.69-.838 3.13-1.784h.166c0 .091-.009.182-.009.274-.091 2.29-.896 4.15-2.797 4.15-1.054 0-1.793-.548-2.109-1.386l-.024-.083h-2.109l.017.091c.382 1.835 2.025 3.138 4.225 3.138 3.013 0 4.83-2.39 4.83-6.425v-.017c0-4.316-2.224-6.134-4.78-6.134Zm-.009 6.533c-1.361 0-2.349-.996-2.349-2.383v-.016a2.367 2.367 0 0 1 2.374-2.39c1.328 0 2.366 1.07 2.366 2.44v.016c0 1.353-1.038 2.333-2.39 2.333Zm8.15-2.017a1.29 1.29 0 0 0 1.32-1.312c0-.738-.556-1.311-1.32-1.311a1.29 1.29 0 0 0-1.32 1.311c0 .73.565 1.312 1.32 1.312Zm0 6.159c.764 0 1.32-.573 1.32-1.312 0-.738-.556-1.311-1.32-1.311a1.29 1.29 0 0 0-1.32 1.311 1.29 1.29 0 0 0 1.32 1.312ZM57.191 32h2.05v-2.3h1.611v-1.767h-1.61v-7.911h-3.03a159.518 159.518 0 0 0-4.88 7.927v1.752h5.86V32Zm-3.868-4.018v-.124a124.04 124.04 0 0 1 3.777-6.126h.125v6.25h-3.902ZM65.408 32h2.142V20.022h-2.134l-3.13 2.2v2.017l2.98-2.109h.142V32Z"/><path stroke="#fff" stroke-width="1.055" d="M324.528 23A3.472 3.472 0 0 1 328 19.527h17A3.472 3.472 0 0 1 348.472 23v5A3.472 3.472 0 0 1 345 31.473h-17A3.472 3.472 0 0 1 324.528 28v-5Z" opacity=".35"/><path fill="#fff" d="M350 24v4.22a2.29 2.29 0 0 0 0-4.22Z" opacity=".4"/><path fill="#fff" d="M326 23a2 2 0 0 1 2-2h17a2 2 0 0 1 2 2v5a2 2 0 0 1-2 2h-17a2 2 0 0 1-2-2v-5Z"/><path fill="#fff" fill-rule="evenodd" d="M308.5 22.587c2.467 0 4.839.968 6.627 2.703.134.134.35.132.482-.004l1.287-1.326a.368.368 0 0 0-.003-.518 11.953 11.953 0 0 0-16.786 0 .37.37 0 0 0-.003.518l1.287 1.326a.337.337 0 0 0 .482.004 9.516 9.516 0 0 1 6.627-2.703Zm.036 4.002c1.355 0 2.662.515 3.667 1.443a.34.34 0 0 0 .482-.006l1.285-1.326a.37.37 0 0 0-.005-.522 7.852 7.852 0 0 0-10.856 0 .37.37 0 0 0-.004.522l1.285 1.326a.34.34 0 0 0 .482.006 5.4 5.4 0 0 1 3.664-1.443Zm2.614 2.588a.36.36 0 0 1-.105.262l-2.223 2.29a.345.345 0 0 1-.494 0l-2.223-2.29a.36.36 0 0 1 .01-.52 3.75 3.75 0 0 1 4.92 0 .362.362 0 0 1 .115.258Z" clip-rule="evenodd"/><path fill="#fff" d="M284 23a1 1 0 0 1 1-1h1a1 1 0 0 1 1 1v8a1 1 0 0 1-1 1h-1a1 1 0 0 1-1-1v-8ZM289 21a1 1 0 0 1 1-1h1a1 1 0 0 1 1 1v10a1 1 0 0 1-1 1h-1a1 1 0 0 1-1-1V21ZM279 26.5a1 1 0 0 1 1-1h1a1 1 0 0 1 1 1V31a1 1 0 0 1-1 1h-1a1 1 0 0 1-1-1v-4.5ZM274 29a1 1 0 0 1 1-1h1a1 1 0 0 1 1 1v2a1 1 0 0 1-1 1h-1a1 1 0 0 1-1-1v-2Z"/></g><defs><clipPath id="a"><path fill="#fff" d="M0 0h375v47H0z"/></clipPath></defs></svg>
